<?xml version="1.0" encoding="UTF-8"?>
<map version="1.10" tiledversion="1.11.2" orientation="orthogonal" renderorder="right-down" width="20" height="15" tilewidth="16" tileheight="16" infinite="0" nextlayerid="5" nextobjectid="1">
 <tileset firstgid="1" source="Tileset_Full.tsx"/>
 <layer id="1" name="Tile Layer 1" width="20" height="15">
  <data encoding="csv">
14,0,0,23,24,24,24,24,24,24,24,24,13,13,13,13,13,24,24,24,
14,0,0,0,0,0,0,0,0,0,0,0,12,24,24,24,25,0,0,0,
14,0,0,0,0,0,0,0,0,0,0,0,70,0,0,0,0,0,0,0,
14,0,0,0,0,0,0,0,0,0,0,0,81,0,0,0,0,0,0,0,
14,0,0,0,0,0,0,0,0,0,0,0,0,0,0,0,0,0,0,0,
14,0,0,0,0,0,0,0,0,0,0,0,0,0,0,0,0,34,35,2,
13,2,2,2,2,2,3,0,0,0,0,0,126,1,2,3,0,0,0,67,
13,13,13,24,24,24,25,0,0,0,0,0,137,67,13,14,0,0,126,67,
13,13,14,0,0,0,0,0,0,0,0,0,148,67,13,14,0,0,137,67,
13,13,14,0,0,0,0,0,0,0,0,0,0,67,13,14,0,0,137,67,
24,24,25,0,0,0,0,0,0,0,0,0,0,67,13,13,36,0,137,67,
0,0,0,0,0,0,0,0,0,0,0,0,0,67,13,14,136,0,137,67,
0,0,0,0,0,0,0,0,0,0,0,0,0,67,13,14,136,0,137,67,
0,0,0,0,0,0,0,0,0,0,0,0,0,67,13,14,136,0,137,67,
2,2,2,2,2,2,2,2,2,2,2,2,2,13,13,13,57,57,57,13
</data>
 </layer>
 <layer id="4" name="Tile Layer 2" width="20" height="15">
  <data encoding="csv">
0,0,0,0,0,0,0,0,0,0,0,0,0,0,0,0,0,0,0,0,
0,0,0,0,0,0,0,133,134,134,134,135,0,0,0,0,0,0,0,0,
0,0,0,0,0,0,0,0,0,0,0,0,0,0,0,0,0,0,0,0,
0,0,0,0,0,0,0,0,0,0,0,0,0,0,0,0,0,0,0,0,
0,0,0,0,0,0,0,0,0,0,0,0,0,0,0,0,0,0,0,0,
0,0,0,0,0,0,0,0,0,0,0,0,0,0,0,0,0,0,0,0,
0,0,0,0,0,0,0,0,0,0,0,0,0,0,0,0,0,0,0,0,
0,0,0,0,0,0,0,0,0,0,0,0,0,0,0,0,0,0,0,0,
0,0,0,0,0,0,0,0,0,0,0,0,0,0,0,0,0,0,0,0,
0,0,0,0,0,0,0,0,0,0,0,0,0,0,0,0,0,0,0,0,
0,0,0,0,0,0,0,0,0,0,0,0,0,0,0,0,0,0,0,0,
0,0,0,0,0,0,0,0,34,35,36,0,0,0,0,0,134,0,0,0,
0,0,0,0,0,0,0,0,0,0,0,0,0,0,0,0,0,0,0,0,
0,0,0,0,0,0,111,112,112,112,112,112,113,0,0,0,112,0,112,0,
0,0,0,0,0,0,0,0,0,0,0,0,0,0,0,0,0,0,0,0
</data>
 </layer>
</map>
