<?xml version="1.0" encoding="UTF-8"?>
<map version="1.10" tiledversion="1.11.2" orientation="orthogonal" renderorder="right-down" width="20" height="15" tilewidth="16" tileheight="16" infinite="0" nextlayerid="2" nextobjectid="1">
 <tileset firstgid="1" source="Tileset_Full.tsx"/>
 <layer id="1" name="Tile Layer 1" width="20" height="15">
  <data encoding="csv">
14,46,46,23,24,24,24,24,24,24,24,24,24,24,24,24,24,24,24,13,
14,0,0,0,0,0,0,0,0,0,0,0,0,0,0,0,0,0,0,12,
14,0,0,0,0,0,0,0,0,0,0,0,0,89,90,90,58,0,0,12,
14,0,0,0,0,0,0,0,0,0,0,0,0,0,0,0,70,0,0,12,
13,35,35,35,36,0,0,0,0,0,0,0,0,0,0,0,70,0,0,12,
14,0,0,0,0,0,0,0,0,0,0,0,0,0,0,0,81,0,0,12,
14,0,0,0,0,0,0,0,0,0,0,0,0,0,0,0,0,0,0,12,
14,0,0,0,0,0,0,0,0,0,0,0,0,0,0,0,0,0,0,12,
14,0,0,0,0,0,0,0,0,0,0,0,0,0,0,0,0,0,0,12,
14,0,0,0,0,0,0,34,35,35,35,35,36,0,0,0,0,0,0,12,
25,0,0,0,0,0,0,46,46,46,46,46,46,46,0,0,0,0,0,12,
47,0,0,0,0,0,0,0,0,0,0,0,0,0,0,0,0,0,0,12,
47,0,0,0,0,0,0,0,0,0,0,0,0,0,0,0,0,0,0,12,
47,0,0,0,0,0,0,0,0,0,0,0,0,0,0,0,0,0,0,12,
2,2,2,2,2,2,3,46,46,46,46,46,46,1,2,2,2,2,2,13
</data>
 </layer>
</map>
