<?xml version="1.0" encoding="UTF-8"?>
<map version="1.10" tiledversion="1.11.2" orientation="orthogonal" renderorder="right-down" width="20" height="15" tilewidth="16" tileheight="16" infinite="0" nextlayerid="3" nextobjectid="1">
 <tileset firstgid="1" source="Tileset_Full.tsx"/>
 <layer id="1" name="Tile Layer 1" width="20" height="15">
  <data encoding="csv">
13,13,13,13,13,13,13,13,13,13,13,13,13,13,13,13,13,13,13,13,
13,24,24,24,24,24,24,24,24,24,24,24,24,13,13,13,13,13,13,13,
14,0,0,0,0,0,0,0,0,0,0,0,126,12,13,13,13,13,13,13,
14,0,0,0,0,0,0,0,0,0,0,0,137,12,13,13,13,13,13,13,
14,0,0,0,0,0,0,0,0,0,0,0,137,12,13,13,13,13,13,13,
24,90,90,90,91,0,0,0,0,0,0,0,137,12,13,13,13,13,13,13,
0,0,0,0,0,0,0,0,0,0,0,0,137,12,13,13,13,13,13,13,
0,0,0,0,0,0,0,0,0,0,0,0,137,12,13,13,13,13,13,13,
0,0,0,0,0,0,0,0,0,0,0,0,137,12,13,13,13,13,13,13,
2,2,2,2,2,2,2,2,2,3,125,0,137,12,13,13,13,13,13,13,
13,13,13,13,13,13,13,13,13,14,136,0,148,23,24,24,24,24,24,24,
13,13,13,13,13,13,13,13,13,14,136,0,0,0,0,0,0,0,0,0,
13,13,13,13,13,13,13,13,13,14,136,0,0,0,0,0,0,0,0,0,
13,13,13,13,13,13,13,13,13,14,147,0,0,0,0,0,0,0,0,0,
13,13,13,13,13,13,13,13,13,13,2,2,2,2,2,2,2,2,2,2
</data>
 </layer>
</map>
