<?xml version="1.0" encoding="UTF-8"?>
<map version="1.10" tiledversion="1.11.2" orientation="orthogonal" renderorder="right-down" width="20" height="15" tilewidth="16" tileheight="16" infinite="0" nextlayerid="3" nextobjectid="1">
 <tileset firstgid="1" source="Tileset_Full.tsx"/>
 <layer id="1" name="Tile Layer 1" width="20" height="15">
  <data encoding="csv">
79,79,79,79,79,79,79,79,79,79,79,79,79,79,79,79,79,79,79,68,
0,0,0,0,0,0,0,0,0,0,0,0,0,0,0,0,0,0,0,67,
0,0,0,0,0,0,0,0,0,0,0,0,0,0,0,0,0,0,0,67,
0,0,0,0,0,0,0,0,0,0,0,0,0,0,0,0,0,0,0,67,
0,0,0,0,0,0,0,0,0,0,0,0,0,0,0,0,0,0,0,67,
2,3,125,0,0,0,0,0,0,0,0,0,0,0,0,0,0,0,0,67,
13,69,136,0,0,0,0,0,0,0,0,0,0,0,0,0,0,0,0,67,
13,69,136,0,0,0,0,0,0,0,0,0,0,0,0,0,0,0,0,67,
13,69,136,0,0,0,0,0,0,0,0,0,0,0,0,0,0,0,0,67,
13,69,136,0,0,0,0,0,0,0,0,0,0,0,0,0,0,0,0,67,
13,69,136,0,0,0,0,0,0,0,0,0,0,0,0,0,0,0,0,78,
13,69,136,0,0,0,0,0,0,0,0,0,0,0,0,0,0,0,0,45,
13,69,136,0,0,0,0,0,0,0,0,0,0,0,0,0,0,0,0,0,
13,69,136,112,112,112,112,112,112,112,112,112,112,112,112,113,0,0,0,0,
13,13,57,57,57,57,57,57,57,57,57,57,57,57,57,57,2,2,2,2
</data>
 </layer>
 <layer id="2" name="Tile Layer 2" width="20" height="15">
  <data encoding="csv">
0,0,0,0,0,0,0,0,0,0,0,0,0,0,0,0,0,0,0,0,
0,0,0,0,0,0,0,0,0,0,0,0,0,0,0,0,0,0,0,0,
0,0,0,0,0,0,0,0,0,0,0,0,0,0,0,0,0,0,0,0,
0,0,0,0,0,0,0,0,0,0,0,0,0,0,0,0,0,0,0,0,
0,0,0,0,0,0,0,0,0,0,0,0,0,0,0,0,0,0,0,0,
0,0,0,0,0,0,0,0,0,0,0,0,0,0,0,0,0,0,0,0,
0,0,0,0,34,35,36,0,0,0,0,0,0,0,0,0,0,0,0,0,
0,0,0,0,0,0,0,0,0,0,0,0,0,0,0,0,0,0,0,0,
0,0,0,0,0,0,0,0,0,0,0,0,0,0,0,0,0,0,0,0,
0,0,0,0,0,0,0,0,0,34,35,36,0,0,0,0,0,0,0,0,
0,0,0,0,0,0,0,0,0,0,0,0,0,0,0,0,0,0,0,0,
0,0,0,0,0,0,0,0,0,0,0,0,0,0,0,0,0,0,0,0,
0,0,0,0,0,0,0,0,0,0,0,0,0,0,0,0,0,0,0,0,
0,0,112,0,0,0,0,0,0,0,0,0,0,0,0,0,0,0,0,0,
0,0,0,0,0,0,0,0,0,0,0,0,0,0,0,0,0,0,0,0
</data>
 </layer>
</map>
