<?xml version="1.0" encoding="UTF-8"?>
<map version="1.10" tiledversion="1.11.2" orientation="orthogonal" renderorder="right-down" width="20" height="15" tilewidth="16" tileheight="16" infinite="0" nextlayerid="2" nextobjectid="1">
 <tileset firstgid="1" source="Tileset_Full.tsx"/>
 <layer id="1" name="Tile Layer 1" width="20" height="15">
  <data encoding="csv">
68,68,68,68,79,79,80,0,0,0,0,0,0,78,79,79,68,68,68,68,
68,68,68,69,0,0,0,0,0,0,0,0,0,0,0,0,67,68,68,68,
68,68,68,69,0,0,0,0,0,0,0,0,0,0,0,0,67,68,68,68,
68,68,68,69,0,0,0,0,0,0,0,0,0,0,0,0,67,68,68,68,
68,68,68,69,0,0,0,0,0,0,0,0,0,0,0,0,67,68,68,68,
68,68,68,69,0,0,0,0,89,90,90,91,46,0,0,0,67,68,68,68,
68,68,68,69,0,0,0,0,46,46,46,46,46,0,0,0,67,68,68,68,
68,68,68,69,0,0,0,0,0,0,0,0,0,0,0,0,67,68,68,68,
68,68,68,69,0,0,0,0,0,0,0,0,0,0,0,0,67,68,68,68,
68,68,68,69,0,0,0,0,0,0,0,0,0,0,0,0,67,68,68,68,
68,68,68,69,0,0,0,0,0,0,0,0,0,0,0,0,67,68,68,68,
68,68,68,69,0,0,0,56,57,57,57,57,58,0,0,0,67,68,68,68,
68,68,68,69,0,0,0,67,68,68,68,68,69,0,0,0,67,68,68,68,
68,68,68,69,0,0,0,67,68,68,68,68,69,0,0,0,67,68,68,68,
68,68,68,68,57,57,57,68,68,68,68,68,68,57,57,57,68,68,68,68
</data>
 </layer>
</map>
