<?xml version="1.0" encoding="UTF-8"?>
<map version="1.10" tiledversion="1.11.2" orientation="orthogonal" renderorder="right-down" width="20" height="15" tilewidth="16" tileheight="16" infinite="0" nextlayerid="2" nextobjectid="1">
 <tileset firstgid="1" source="Tileset_Full.tsx"/>
 <layer id="1" name="Tile Layer 1" width="20" height="15">
  <data encoding="csv">
13,24,24,24,24,24,24,24,24,24,24,24,24,24,24,24,24,24,24,13,
14,0,0,0,0,0,0,0,0,0,0,0,0,0,0,0,0,0,0,12,
14,0,0,0,0,0,0,0,0,0,0,0,0,0,0,0,0,0,0,12,
14,0,0,0,0,0,0,0,0,0,0,0,0,0,0,0,0,0,0,12,
14,0,0,0,0,0,0,0,0,0,0,0,0,0,0,0,0,0,0,12,
14,0,0,0,0,0,0,0,0,0,0,0,0,0,0,0,0,0,0,12,
14,0,0,0,0,0,0,0,0,0,0,0,0,0,0,0,0,0,0,23,
14,0,0,0,0,0,0,0,0,0,0,0,0,0,0,0,0,0,0,47,
14,0,0,0,0,0,0,0,0,0,0,0,0,0,0,0,0,0,0,47,
14,0,0,0,0,0,0,0,0,0,0,0,0,0,0,0,0,0,0,1,
14,0,0,0,0,0,0,0,0,0,0,0,0,0,0,0,0,0,0,12,
14,0,0,0,0,0,0,0,0,0,0,0,0,0,0,0,0,1,2,13,
14,0,0,0,0,0,0,0,0,0,0,0,0,0,0,1,2,13,13,13,
13,2,2,2,2,2,3,111,112,112,113,1,2,2,2,13,13,13,13,13,
13,13,13,13,13,13,13,2,2,2,2,13,13,13,13,13,13,13,13,13
</data>
 </layer>
</map>
