<?xml version="1.0" encoding="UTF-8"?>
<map version="1.10" tiledversion="1.11.2" orientation="orthogonal" renderorder="right-down" width="20" height="15" tilewidth="16" tileheight="16" infinite="0" nextlayerid="4" nextobjectid="1">
 <tileset firstgid="1" source="Tileset_Full.tsx"/>
 <layer id="1" name="Tile Layer 1" width="20" height="15">
  <data encoding="csv">
68,79,79,79,79,79,79,79,79,79,79,79,79,79,79,79,79,79,79,68,
69,136,134,134,134,134,134,134,134,134,134,134,134,134,134,134,134,134,134,67,
69,136,0,0,0,0,0,0,0,0,0,0,0,0,0,0,0,0,137,67,
69,136,0,0,0,0,0,0,0,0,0,0,92,0,0,0,0,0,137,67,
69,136,92,0,0,0,0,0,0,0,0,0,0,0,0,0,0,0,137,67,
69,136,0,0,0,0,0,0,0,0,0,0,0,0,0,0,0,0,137,67,
69,136,0,0,0,0,0,0,0,0,0,0,0,0,0,0,0,0,137,67,
69,112,112,112,0,0,0,0,0,0,0,0,0,0,0,0,59,0,137,67,
68,57,57,58,136,0,0,0,0,59,0,0,0,0,0,0,70,0,137,67,
68,79,79,80,147,0,89,90,90,80,0,0,0,0,0,0,81,0,137,67,
69,0,0,0,0,0,0,0,0,0,0,0,0,0,0,0,0,0,137,67,
69,0,0,0,0,0,0,0,0,0,0,0,0,0,0,0,0,0,137,67,
69,0,0,0,0,0,0,0,0,0,0,0,0,0,0,0,0,0,137,67,
69,0,0,111,112,112,112,112,112,112,112,112,112,112,112,112,112,112,137,67,
69,0,0,56,57,57,57,57,57,57,57,57,57,57,57,57,57,57,57,68
</data>
 </layer>
 <layer id="3" name="Tile Layer 2" width="20" height="15">
  <data encoding="csv">
0,0,0,0,0,0,0,0,0,0,0,0,0,0,0,0,0,0,0,0,
0,134,0,0,0,0,0,0,0,0,0,0,0,0,0,0,0,0,137,0,
0,0,0,0,0,0,0,0,0,0,0,0,0,0,0,0,0,0,0,0,
0,0,0,0,0,0,0,0,0,0,0,0,0,0,0,0,0,0,0,0,
0,0,0,0,0,0,0,0,0,0,0,0,0,0,0,0,0,0,0,0,
0,0,0,0,0,0,0,0,0,0,0,0,0,0,0,0,0,0,0,0,
0,0,0,0,0,0,0,0,0,0,0,0,0,0,0,0,0,0,0,0,
0,136,0,0,0,0,0,0,0,0,0,0,0,0,0,0,0,0,0,0,
0,0,0,0,0,0,0,0,0,0,0,0,0,0,0,0,0,0,0,0,
0,0,0,0,0,0,0,0,0,0,0,0,0,0,0,0,0,0,0,0,
0,0,0,0,0,0,0,0,0,0,0,0,0,0,0,0,0,0,0,0,
0,0,0,0,0,0,0,0,0,0,0,0,0,0,0,0,0,0,0,0,
0,0,0,0,0,0,0,0,0,0,0,0,0,0,0,0,0,0,0,0,
0,0,0,0,0,0,0,0,0,0,0,0,0,0,0,0,0,0,112,0,
0,0,0,0,0,0,0,0,0,0,0,0,0,0,0,0,0,0,0,0
</data>
 </layer>
</map>
